X:1
T:Only Once You Pass This Way
T:John Robson Sweney (1837-1899)
T:Only Once You Pass This Way
T:Public Domain
T:Public Domain
C:John Robson Sweney (1837-1899)
Z:Public Domain
%%score ( 1 2 ) ( 3 4 )
L:1/8
M:4/4
K:Ab
V:1 treble 
V:2 treble 
V:3 bass 
V:4 bass 
V:1
 [Ec][DB] | [CA]2 [CA][DF] [DF][CE][A,C][B,D] | [CE]6 [CE][EA] | [EA]3 [EG] [EG]2 (AB) | %4
w: 1.~Do your|best while life’s pil- grim way you|tread, Scatt- ’ring|sun- shine while you *|
w: 2.~Ev- ’ry|day poor and need- y you will|find, Filled with|sor- row and dis- *|
w: 3.~Tell the|world that the Sav- ior died for|all, Bid them|ev- er watch and *|
w: 4.~Be a|brave, ear- nest sol- dier in the|strife, Then when|comes the close of *|
 [Ec]6 [Ec][Ed] | [Ee]2 [Ee][Ed] [Ec][DB][CA][EG] | [DF]6 [FA][DF] | [CE]3 [Ec] [Ec]2 [DB]2 | %8
w: Bear in mind,|while the pre- cious seed you spread,|On- ly once|you pass this way.|
w: Do your best|some poor, brok- en hearts to bind,|On- ly once|you pass this way.|
w: Lift your voice,|shout a- loud the Gos- pel call,|On- ly once|you pass this way.|
w: May the world|be the bet- ter for your life,|On- ly once|you pass this way.|
 [CA]6 ||"^Refrain" [CA][EG] | [DF]4- [DF][Fd][Fd][DF] | [CE]6 [Ec][Ee] | %12
w: ||||
w: On-|ly once|you * pass this way,|On- ly once|
w: ||||
w: ||||
 (G2 GG [Gd])[Gd][Gd][Gc] | [GB]6 E[Ec] | [DB] [CA]3- [CA]2 [Ec][_Ge] | [Fd]6 [DF][Fd] | %16
w: ||||
w: you * * * pass this way;|a bless- ing|* you * may, On-|ly once you|
w: ||||
w: ||||
 [Ec]3 [Ec] [Ec]2 [DB]2 | [CA]6 |] %18
w: ||
w: pass this way. *||
w: ||
w: ||
V:2
 x2 | x8 | x8 | x6 E2 | x8 | x8 | x8 | x8 | x6 || x2 | x8 | x8 | d4- x4 | x6 E x | x8 | x8 | x8 | %17
w: |||may;||||||||||||||
w: |||may;|||||||||Be|while||||
w: |||pray;||||||||||||||
w: |||day,||||||||||||||
 x6 |] %18
w: |
w: |
w: |
w: |
V:3
 [A,,A,][A,,A,] | [A,,E,]2 [A,,E,][A,,A,] [A,,A,][A,,A,][A,,E,][A,,E,] | [A,,A,]6 [A,,A,][A,,C] | %3
w: ~ ~|~ ~ ~ ~ ~ ~ ~|~ ~ ~|
 [E,C]3 [E,B,] (E,D,)([C,A,][E,G,]) | A,6 A,[A,B,] | %5
w: ~ ~ ~ * ~ *|~ ~ ~|
 [A,C]2 [A,C][A,B,] [A,,A,][A,,A,][A,,A,][C,A,] | [D,A,]6 [D,A,][D,A,] | %7
w: ~ ~ ~ ~ ~ ~ ~|~ ~ ~|
 [E,A,]3 [E,A,] [E,A,]2 [E,G,]2 | [A,,E,A,]6 || z2 | [D,A,]2 [D,A,]2 [D,A,]3 [D,A,] | %11
w: ~ ~ On- ly|once||you pass this way|
 [A,,A,]2 [A,,A,]2 [A,,A,]2 A,[A,C] | [E,B,]2 [E,B,][E,B,] [E,B,][E,B,][E,B,][E,E] | %13
w: ~ ~ ~ On- ly|you pass this way; ~ ~ ~|
 [E,E]E,[E,G,][E,B,] [E,D]2 z2 | z2 [A,,E,][A,,E,] [A,,E,][A,,E,][A,,A,][C,A,] | %15
w: ~ Be a bless- ing,|a bless- ing while you may|
 [D,A,][D,A,][D,A,][D,A,] [D,A,]2 [D,A,][D,A,] | [E,A,]3 [E,A,] [E,A,]2 [E,G,]2 | [A,,E,A,]6 |] %18
w: |||
V:4
 x2 | x8 | x8 | x4 B,2 x2 | A,6 A, x | x8 | x8 | x8 | x6 || x2 | x8 | x6 A, x | x8 | x E, x6 | x8 | %15
w: |||~|~ ~|||||||once||be||
 x8 | x8 | x6 |] %18
w: |||

